src/dsmComponents/Icons/device-smartwatch-disconnected-20px.svg

<?xml version="1.0" encoding="UTF-8"?>
<svg width="18px" height="20px" viewBox="0 0 18 20" version="1.1" xmlns="http://www.w3.org/2000/svg" xmlns:xlink="http://www.w3.org/1999/xlink">
    <!-- Generator: Sketch 59.1 (86144) - https://sketch.com -->
    <title>device-smartwatch-disconnected-20px</title>
    <desc>Created with Sketch.</desc>
    <defs>
        <path d="M0.509639497,3.04583333 C0.679074257,2.835 0.979761296,2.8075 1.18101479,2.985 L1.18101479,2.985 L17.3210678,17.1725 C17.5231167,17.35 17.5493672,17.6641667 17.3799324,17.8758333 L17.3799324,17.8758333 L16.9821982,18.3733333 C16.8127635,18.585 16.5120764,18.6125 16.3108229,18.435 L16.3108229,18.435 L15.0046639,17.2875 C14.8463657,17.36 14.6809083,17.42 14.5059052,17.4541667 L14.5059052,17.4541667 L14.0493064,19.3691667 C13.9610094,19.7391667 13.6428221,20 13.2777021,20 L13.2777021,20 L5.32301853,20 C4.95789855,20 4.63971121,19.7391667 4.55061875,19.3691667 L4.55061875,19.3691667 L4.09401991,17.4541667 C2.98513702,17.2391667 2.1411451,16.2233333 2.1411451,15 L2.1411451,15 L2.1411451,5.97916667 L0.169974508,4.24666667 C-0.0312789862,4.07 -0.057529442,3.755 0.11110985,3.54333333 L0.11110985,3.54333333 Z M3.73208181,7.37833333 L3.73208181,15 C3.73208181,15.4591667 4.0892471,15.8333333 4.52755017,15.8333333 L4.52755017,15.8333333 L13.3508852,15.8333333 L3.73208181,7.37833333 Z M13.2271899,0 C13.5923098,0 13.9104972,0.26 13.9987942,0.630833333 L13.9987942,0.630833333 L14.4561885,2.54583333 C15.5650714,2.76083333 16.4090633,3.77666667 16.4090633,5 L16.4090633,5 L16.4090633,7.5 L18,7.5 L18,12.5 L16.4090633,12.5 L16.4090633,13.7825 L14.8181266,12.3841667 L14.8181266,5 C14.8181266,4.54083333 14.4609613,4.16666667 14.0226582,4.16666667 L14.0226582,4.16666667 L5.46978244,4.16666667 L3.73486595,2.64166667 C3.8366859,2.60666667 3.93611945,2.56666667 4.04350767,2.54583333 L4.04350767,2.54583333 L4.50090198,0.630833333 C4.58919897,0.26 4.90738631,0 5.27250629,0 L5.27250629,0 Z" id="path-1"></path>
    </defs>
    <g id="Final" stroke="none" stroke-width="1" fill="none" fill-rule="evenodd">
        <g id="All-Nucleo-Icons" transform="translate(-464.000000, -2582.000000)">
            <g id="Solo/Nucleo/20px/device-smartwatch-disconnected" transform="translate(461.000000, 2580.000000)">
                <g transform="translate(3.000000, 2.000000)" id="watch-lost">
                    <g>
                        <g id="Colour/Default-Colour">
                            <mask id="mask-2" fill="white">
                                <use xlink:href="#path-1"></use>
                            </mask>
                            <g id="Mask"></g>
                            <g id="colour/neutral/chia" mask="url(#mask-2)" fill="#737373">
                                <g transform="translate(-22.000000, -22.000000)" id="Colour">
                                    <rect x="0" y="0" width="64" height="64"></rect>
                                </g>
                            </g>
                        </g>
                    </g>
                </g>
            </g>
        </g>
    </g>
</svg>

<svg width="18" height="20" xmlns="http://www.w3.org/2000/svg" xmlns:xlink="http://www.w3.org/1999/xlink"><defs><path d="M.51 3.046a.462.462 0 01.671-.061l16.14 14.188a.515.515 0 01.059.703l-.398.497a.461.461 0 01-.671.062l-1.306-1.147a2.22 2.22 0 01-.5.166l-.456 1.915a.804.804 0 01-.771.631H5.323a.805.805 0 01-.772-.63l-.457-1.916C2.985 17.24 2.141 16.224 2.141 15V5.98L.17 4.246a.517.517 0 01-.059-.704zm3.222 4.332V15c0 .46.357.833.796.833h8.823L3.732 7.378zM13.227 0c.365 0 .683.26.772.63l.457 1.916c1.11.215 1.953 1.23 1.953 2.454v2.5H18v5h-1.59v1.283l-1.592-1.399V5c0-.46-.357-.833-.795-.833H5.47L3.735 2.642c.102-.035.201-.075.309-.096L4.5.63A.803.803 0 015.273 0z" id="device-smartwatch-disconnected-20px_svg__a"/></defs><use fill="#737373" xlink:href="#device-smartwatch-disconnected-20px_svg__a" fill-rule="evenodd"/></svg>
